dist/flags/s/231.svg

<svg width="16" height="12" viewBox="0 0 16 12" fill="none" xmlns="http://www.w3.org/2000/svg">
<mask id="mask0" mask-type="alpha" maskUnits="userSpaceOnUse" x="0" y="0" width="16" height="12">
<rect width="16" height="12" fill="white"/>
</mask>
<g mask="url(#mask0)">
<path fill-rule="evenodd" clip-rule="evenodd" d="M0 0V12H16V0H0Z" fill="#FECA00"/>
<mask id="mask1" mask-type="alpha" maskUnits="userSpaceOnUse" x="0" y="0" width="16" height="12">
<path fill-rule="evenodd" clip-rule="evenodd" d="M0 0V12H16V0H0Z" fill="white"/>
</mask>
<g mask="url(#mask1)">
<path fill-rule="evenodd" clip-rule="evenodd" d="M0 0V4H16V0H0Z" fill="#5EAA22"/>
<path fill-rule="evenodd" clip-rule="evenodd" d="M0 8V12H16V8H0Z" fill="#E31D1C"/>
<path fill-rule="evenodd" clip-rule="evenodd" d="M8 9C9.65685 9 11 7.65685 11 6C11 4.34315 9.65685 3 8 3C6.34315 3 5 4.34315 5 6C5 7.65685 6.34315 9 8 9Z" fill="#2B77B8"/>
<path fill-rule="evenodd" clip-rule="evenodd" d="M8.00003 7L6.61901 7.46326L7.04897 6.30902L6.11224 5.19098H7.41224L8.00003 4L8.58781 5.19098H9.91647L8.95108 6.30902L9.29375 7.46326L8.00003 7Z" stroke="#FECA00" stroke-width="0.75"/>
<path d="M7.84806 6.01721L6.80573 8.19728" stroke="#2B77B8" stroke-width="0.5"/>
<path d="M7.68402 5.73975H5.68402" stroke="#2B77B8" stroke-width="0.5"/>
<path d="M8.06073 6.41882L10.0153 7.3209" stroke="#2B77B8" stroke-width="0.5"/>
<path d="M8.48334 5.9369L9.89813 4.38831" stroke="#2B77B8" stroke-width="0.5"/>
</g>
</g>
</svg>

<svg width="16" height="12" fill="none" xmlns="http://www.w3.org/2000/svg">
  <mask id="a" maskUnits="userSpaceOnUse" x="0" y="0" width="16" height="12">
    <path fill="#fff" d="M0 0h16v12H0z"/>
  </mask>
  <g mask="url(#a)">
    <path fill-rule="evenodd" clip-rule="evenodd" d="M0 0v12h16V0H0z" fill="#FECA00"/>
    <mask id="b" maskUnits="userSpaceOnUse" x="0" y="0" width="16" height="12">
      <path fill-rule="evenodd" clip-rule="evenodd" d="M0 0v12h16V0H0z" fill="#fff"/>
    </mask>
    <g mask="url(#b)">
      <path fill-rule="evenodd" clip-rule="evenodd" d="M0 0v4h16V0H0z" fill="#5EAA22"/>
      <path fill-rule="evenodd" clip-rule="evenodd" d="M0 8v4h16V8H0z" fill="#E31D1C"/>
      <path fill-rule="evenodd" clip-rule="evenodd" d="M8 9a3 3 0 100-6 3 3 0 000 6z" fill="#2B77B8"/>
      <path clip-rule="evenodd" d="M8 7l-1.381.463.43-1.154-.937-1.118h1.3L8 4l.588 1.191h1.328l-.965 1.118.343 1.154L8 7z" stroke="#FECA00" stroke-width=".75"/>
      <path d="M7.848 6.017l-1.042 2.18m.878-2.457h-2m2.376.679l1.955.902M8.483 5.937l1.415-1.549" stroke="#2B77B8" stroke-width=".5"/>
    </g>
  </g>
</svg>
